__DeathRunner_UnityProj__/Assets/00_Content/02_Textures/LUTs/LUT_Roof-01.CUBE
#Created by: Adobe Photoshop Export Color Lookup Plugin
TITLE "Roof 1.psd"
#LUT size
LUT_3D_SIZE 8
#data domain
#LUT data points
DOMAIN_MIN 0.000000 0.000000 0.000000
DOMAIN_MAX 0.903226 0.903226 0.903226
0.009399 0.044922 0.062714
0.086121 0.045776 0.063873
0.192963 0.046234 0.064484
0.329468 0.047119 0.065674
0.496765 0.047577 0.066284
0.671448 0.048462 0.067474
0.816956 0.049805 0.069275
0.924591 0.050262 0.069855
0.009979 0.165283 0.065674
0.086761 0.166595 0.067474
0.193207 0.166595 0.067474
0.329224 0.167511 0.068665
0.495941 0.167908 0.069275
0.670044 0.168793 0.070435
0.815979 0.169220 0.071014
0.923523 0.170105 0.072266
0.012634 0.314270 0.080017
0.089325 0.315491 0.081848
0.194611 0.316650 0.083679
0.328217 0.316650 0.083679
0.491364 0.317078 0.084290
0.663086 0.317932 0.085480
0.807831 0.318726 0.086670
0.916473 0.319153 0.087311
0.016174 0.483826 0.098816
0.092621 0.484833 0.100677
0.196167 0.485168 0.101288
0.326904 0.486176 0.103119
0.485657 0.486542 0.103729
0.654083 0.487244 0.104950
0.797607 0.487946 0.106171
0.906830 0.488586 0.107391
0.017731 0.646240 0.106812
0.093903 0.646606 0.108002
0.196869 0.647003 0.109253
0.326416 0.647400 0.110474
0.483154 0.647949 0.112366
0.650146 0.648376 0.113586
0.793060 0.648773 0.114838
0.902618 0.649170 0.116089
0.015472 0.777344 0.095184
0.091858 0.777466 0.096405
0.195801 0.777557 0.097015
0.327209 0.777649 0.098206
0.486908 0.777802 0.099487
0.656067 0.777924 0.100677
0.799896 0.778076 0.101837
0.908875 0.778229 0.103119
0.010590 0.882050 0.069275
0.087280 0.882019 0.070435
0.193726 0.881958 0.073181
0.329041 0.881989 0.071686
0.494843 0.881958 0.072845
0.667633 0.881897 0.075592
0.812988 0.881866 0.076782
0.921112 0.881866 0.077393
0.006134 0.959381 0.044128
0.082764 0.959351 0.044739
0.191193 0.959351 0.044739
0.330872 0.959259 0.045898
0.503021 0.959259 0.045898
0.680847 0.959137 0.047058
0.828308 0.959137 0.047058
0.934875 0.959137 0.047058
0.009521 0.045349 0.194519
0.086121 0.045776 0.195068
0.192993 0.046692 0.196198
0.329468 0.047119 0.196777
0.496613 0.048035 0.197906
0.671173 0.048920 0.199097
0.816956 0.049805 0.200226
0.924591 0.050262 0.200806
0.010071 0.165741 0.197388
0.086761 0.166595 0.198547
0.193207 0.166595 0.198547
0.329224 0.167511 0.199615
0.495941 0.167908 0.200226
0.670044 0.168793 0.201355
0.815979 0.169220 0.201935
0.923523 0.170105 0.203125
0.012848 0.315063 0.211700
0.089325 0.315491 0.212280
0.194580 0.316284 0.213440
0.328156 0.317078 0.214630
0.491028 0.317932 0.215759
0.662811 0.318329 0.216339
0.807526 0.319153 0.217468
0.916473 0.319153 0.217468
0.016296 0.484192 0.229187
0.092621 0.484833 0.230347
0.196320 0.485870 0.232117
0.326904 0.486176 0.232697
0.485291 0.487244 0.234467
0.653778 0.487579 0.235046
0.797272 0.488281 0.236206
0.906525 0.488922 0.237366
0.017731 0.646240 0.236206
0.093903 0.646606 0.237366
0.196869 0.647003 0.238525
0.326416 0.647400 0.239777
0.483276 0.647797 0.240936
0.650146 0.648376 0.242706
0.793060 0.648773 0.243866
0.902618 0.649170 0.245087
0.015350 0.777252 0.224457
0.091644 0.777344 0.225037
0.195740 0.777466 0.226227
0.327240 0.777588 0.227417
0.487061 0.777740 0.228577
0.656311 0.777863 0.229736
0.800171 0.777985 0.230957
0.909210 0.778168 0.232117
0.010895 0.882019 0.201691
0.087433 0.881989 0.202240
0.193420 0.882050 0.200806
0.328918 0.881958 0.203979
0.494537 0.881958 0.204529
0.668213 0.881927 0.205139
0.813629 0.881897 0.206299
0.921417 0.881866 0.207397
0.006042 0.959442 0.175751
0.082550 0.959442 0.175751
0.191132 0.959381 0.176331
0.330933 0.959351 0.176849
0.503204 0.959290 0.177429
0.681458 0.959259 0.177979
0.828613 0.959198 0.178558
0.935120 0.959198 0.178558
0.009399 0.044922 0.342438
0.086121 0.045776 0.343445
0.192963 0.046234 0.344055
0.329468 0.047119 0.345062
0.496765 0.047577 0.345581
0.671448 0.048462 0.346680
0.817535 0.048920 0.347198
0.924896 0.049805 0.348267
0.010162 0.166199 0.346069
0.086761 0.166595 0.346680
0.193237 0.167053 0.347198
0.329193 0.167908 0.348267
0.495697 0.168396 0.348785
0.669800 0.169220 0.349854
0.815704 0.169708 0.350372
0.923523 0.170105 0.350922
0.012848 0.315063 0.358917
0.089661 0.316650 0.361084
0.194611 0.316650 0.361084
0.328094 0.317932 0.362701
0.491028 0.317932 0.362701
0.662506 0.318726 0.363770
0.807526 0.319153 0.364319
0.916168 0.319519 0.364838
0.016510 0.484833 0.376190
0.092712 0.485168 0.376709
0.196320 0.485870 0.377808
0.326874 0.486542 0.378906
0.485291 0.487244 0.380005
0.653534 0.487946 0.381073
0.796967 0.488586 0.382172
0.906189 0.489288 0.383270
0.017731 0.646240 0.381653
0.093903 0.646606 0.382690
0.196930 0.647217 0.384338
0.326385 0.647614 0.385406
0.483276 0.647797 0.385956
0.650146 0.648376 0.387665
0.793396 0.648560 0.388214
0.902618 0.649170 0.389832
0.015137 0.777130 0.369690
0.091583 0.777252 0.370758
0.195740 0.777405 0.371857
0.327301 0.777557 0.372894
0.487244 0.777649 0.374054
0.656647 0.777802 0.375153
0.800507 0.777924 0.376190
0.909790 0.777985 0.376709
0.010681 0.882050 0.348541
0.087250 0.882050 0.349121
0.193573 0.881989 0.350159
0.329010 0.881989 0.350677
0.494720 0.881958 0.351776
0.668518 0.881958 0.352295
0.814240 0.881927 0.352814
0.921967 0.881897 0.353882
0.005829 0.959534 0.324371
0.082397 0.959473 0.324860
0.191071 0.959442 0.325378
0.331024 0.959442 0.325378
0.503540 0.959381 0.325928
0.682007 0.959351 0.326447
0.829224 0.959290 0.326996
0.935364 0.959259 0.327454
0.009399 0.044922 0.508789
0.086121 0.045776 0.509674
0.192963 0.046234 0.510193
0.329468 0.047119 0.511078
0.496765 0.047577 0.511536
0.671448 0.048462 0.512482
0.817535 0.048920 0.512909
0.924896 0.049805 0.513824
0.010162 0.166199 0.511993
0.086884 0.167053 0.512909
0.193268 0.167511 0.513367
0.329193 0.167908 0.513824
0.495697 0.168396 0.514313
0.669800 0.169220 0.515198
0.815704 0.169708 0.515656
0.923248 0.170532 0.516571
0.013062 0.315857 0.523895
0.089661 0.316650 0.524780
0.194733 0.317474 0.525696
0.328094 0.317932 0.526154
0.490845 0.318329 0.526611
0.662506 0.318726 0.527100
0.806885 0.319946 0.528442
0.915619 0.320312 0.528870
0.016510 0.484833 0.537445
0.092926 0.485870 0.538818
0.196350 0.486176 0.539246
0.326782 0.486908 0.540131
0.485107 0.487579 0.541016
0.653259 0.488281 0.541931
0.796631 0.488922 0.542816
0.905914 0.489624 0.543701
0.017731 0.646240 0.541931
0.093903 0.646606 0.542816
0.196869 0.647003 0.543701
0.326416 0.647400 0.544647
0.483154 0.647949 0.545990
0.650360 0.648163 0.546417
0.793396 0.648560 0.547302
0.902863 0.648987 0.548187
0.015137 0.777130 0.532013
0.091431 0.777191 0.532471
0.195740 0.777405 0.533844
0.327332 0.777466 0.534302
0.487427 0.777588 0.535187
0.656891 0.777740 0.536102
0.800842 0.777863 0.536987
0.910095 0.777924 0.537445
0.010559 0.882050 0.513641
0.087128 0.882050 0.514130
0.193451 0.882050 0.514587
0.329041 0.881989 0.515472
0.495056 0.881989 0.515961
0.668793 0.881958 0.516846
0.814575 0.881958 0.517303
0.922485 0.881927 0.517822
0.005737 0.959595 0.492523
0.082214 0.959595 0.492523
0.191162 0.959351 0.494659
0.331055 0.959473 0.493439
0.503082 0.959259 0.495575
0.682312 0.959381 0.494354
0.829498 0.959351 0.494812
0.935852 0.959351 0.494812
0.009399 0.044922 0.669159
0.086121 0.045776 0.669739
0.192993 0.046692 0.670288
0.329468 0.047119 0.670593
0.496765 0.047577 0.670898
0.671173 0.048920 0.671692
0.817535 0.048920 0.671692
0.924896 0.049805 0.672302
0.010162 0.166199 0.671143
0.086884 0.167053 0.671692
0.193268 0.167511 0.671997
0.329163 0.168396 0.672577
0.495514 0.168793 0.672852
0.669495 0.169708 0.673431
0.815704 0.169708 0.673431
0.923248 0.170532 0.673981
0.013184 0.316284 0.678802
0.089722 0.317078 0.679321
0.194794 0.317932 0.679901
0.328064 0.318329 0.680176
0.490540 0.319153 0.680756
0.662262 0.319153 0.680756
0.806580 0.320312 0.681610
0.915344 0.320740 0.681854
0.016663 0.485168 0.687134
0.092926 0.485870 0.687714
0.196411 0.486542 0.688232
0.326782 0.486908 0.688538
0.484924 0.487946 0.689392
0.652924 0.488586 0.689911
0.796295 0.489288 0.690491
0.905914 0.489624 0.690735
0.017731 0.646240 0.689667
0.093903 0.646606 0.690186
0.196869 0.647003 0.690735
0.326416 0.647400 0.691284
0.483154 0.647949 0.692108
0.650360 0.648163 0.692383
0.793060 0.648773 0.693176
0.902618 0.649170 0.693756
0.014923 0.777008 0.682983
0.091339 0.777130 0.683533
0.195587 0.777252 0.684082
0.327454 0.777344 0.684357
0.487610 0.777557 0.685211
0.657166 0.777649 0.685760
0.801483 0.777740 0.686066
0.910400 0.777863 0.686615
0.010345 0.882080 0.671631
0.086914 0.882080 0.671906
0.193329 0.882050 0.672180
0.329102 0.882050 0.672760
0.495239 0.881989 0.673309
0.669342 0.881989 0.673645
0.815186 0.881958 0.673859
0.922791 0.881958 0.674469
0.005646 0.959625 0.658783
0.082123 0.959625 0.658783
0.190918 0.959595 0.659088
0.331085 0.959534 0.659393
0.503265 0.959320 0.660675
0.682800 0.959473 0.659668
0.829834 0.959381 0.660248
0.936401 0.959442 0.659912
0.009399 0.044922 0.799377
0.086121 0.045776 0.799652
0.192993 0.046692 0.799957
0.329468 0.047119 0.800110
0.496765 0.047577 0.800232
0.671448 0.048462 0.800507
0.816956 0.049805 0.800934
0.924896 0.049805 0.800934
0.010284 0.166595 0.800507
0.086975 0.167511 0.800781
0.193420 0.168396 0.801086
0.329163 0.168396 0.801086
0.495331 0.169220 0.801361
0.669495 0.169708 0.801514
0.815369 0.170105 0.801666
0.922943 0.170990 0.801910
0.013306 0.316650 0.804260
0.089722 0.317078 0.804413
0.194824 0.318329 0.804871
0.328064 0.318329 0.804871
0.490356 0.319519 0.805298
0.661652 0.319946 0.805420
0.806580 0.320312 0.805542
0.915070 0.321167 0.805817
0.016785 0.485535 0.808441
0.093048 0.486176 0.808716
0.196411 0.486542 0.808838
0.326752 0.487244 0.809143
0.484741 0.488281 0.809570
0.652710 0.488922 0.809845
0.796295 0.489288 0.809998
0.905640 0.489990 0.810242
0.017578 0.646027 0.809418
0.093903 0.646606 0.809845
0.196869 0.647003 0.810120
0.326416 0.647400 0.810394
0.483276 0.647797 0.810669
0.650360 0.648163 0.810944
0.793396 0.648560 0.811188
0.902863 0.648987 0.811462
0.014801 0.776917 0.806091
0.091187 0.777069 0.806396
0.195557 0.777191 0.806641
0.327484 0.777252 0.806763
0.487976 0.777405 0.807068
0.657745 0.777557 0.807343
0.801788 0.777649 0.807587
0.910675 0.777802 0.807892
0.010254 0.882111 0.800446
0.086823 0.882080 0.800598
0.193329 0.882050 0.800873
0.329193 0.882050 0.801025
0.495605 0.882050 0.801178
0.669891 0.882019 0.801300
0.815796 0.881989 0.801453
0.923340 0.881958 0.801727
0.005432 0.959717 0.793976
0.082001 0.959686 0.794098
0.190857 0.959625 0.794220
0.331177 0.959625 0.794220
0.503418 0.959351 0.795044
0.683105 0.959534 0.794556
0.829346 0.959320 0.795197
0.935455 0.959259 0.795319
0.009308 0.044464 0.897186
0.086121 0.045776 0.897339
0.192993 0.046692 0.897430
0.329468 0.047119 0.897430
0.496765 0.047577 0.897491
0.671448 0.048462 0.897583
0.817230 0.049347 0.897675
0.924896 0.049805 0.897705
0.010284 0.166595 0.897583
0.087067 0.167908 0.897705
0.193420 0.168396 0.897736
0.329102 0.168793 0.897797
0.495331 0.169220 0.897827
0.669189 0.170105 0.897888
0.815063 0.170532 0.897949
0.922699 0.171417 0.898071
0.013397 0.317078 0.898804
0.089935 0.317932 0.898895
0.194824 0.318329 0.898895
0.328003 0.318726 0.898987
0.490356 0.319519 0.899078
0.661438 0.320312 0.899139
0.805939 0.321167 0.899231
0.914764 0.321594 0.899261
0.016785 0.485535 0.900055
0.093048 0.486176 0.900116
0.196472 0.486908 0.900208
0.326721 0.487579 0.900299
0.484741 0.488281 0.900391
0.652710 0.488922 0.900482
0.796021 0.489624 0.900543
0.905304 0.490356 0.900635
0.017578 0.646027 0.900360
0.093811 0.646423 0.900421
0.196869 0.647003 0.900543
0.326416 0.647400 0.900635
0.483276 0.647797 0.900696
0.650360 0.648163 0.900787
0.793396 0.648560 0.900879
0.902863 0.648987 0.900970
0.014679 0.776825 0.899261
0.091003 0.776917 0.899292
0.195496 0.777130 0.899445
0.327515 0.777191 0.899506
0.488159 0.777344 0.899567
0.658020 0.777466 0.899658
0.802094 0.777588 0.899719
0.910980 0.777740 0.899811
0.010040 0.882141 0.897491
0.086609 0.882141 0.897522
0.193237 0.882080 0.897614
0.329254 0.882080 0.897644
0.495972 0.882050 0.897705
0.670441 0.882050 0.897736
0.816132 0.882019 0.897797
0.923889 0.881989 0.897858
0.005798 0.959564 0.895721
0.082306 0.959564 0.895721
0.190826 0.959686 0.895569
0.331085 0.959503 0.895752
0.503815 0.959473 0.895782
0.683380 0.959595 0.895660
0.829620 0.959351 0.895874
0.935944 0.959351 0.895874
0.009399 0.044922 0.964630
0.086121 0.045776 0.964630
0.192963 0.046234 0.964600
0.329468 0.047119 0.964600
0.496613 0.048035 0.964569
0.671448 0.048462 0.964569
0.817871 0.048462 0.964569
0.925201 0.049347 0.964539
0.010498 0.167511 0.964539
0.087067 0.167908 0.964539
0.193420 0.168396 0.964508
0.329071 0.169220 0.964508
0.495148 0.169708 0.964508
0.669189 0.170105 0.964478
0.815063 0.170532 0.964478
0.922424 0.171875 0.964447
0.013397 0.317078 0.964294
0.089935 0.317932 0.964294
0.194885 0.318726 0.964264
0.327850 0.319946 0.964233
0.490112 0.319946 0.964233
0.661438 0.320312 0.964203
0.805634 0.321594 0.964172
0.914459 0.321991 0.964172
0.016907 0.485870 0.963989
0.093170 0.486542 0.963959
0.196472 0.487244 0.963959
0.326691 0.487946 0.963959
0.484558 0.488586 0.963928
0.652374 0.489288 0.963898
0.795654 0.489990 0.963867
0.905029 0.490662 0.963867
0.017578 0.646027 0.963959
0.093811 0.646423 0.963928
0.196838 0.646820 0.963898
0.326447 0.647217 0.963867
0.483459 0.647614 0.963867
0.650360 0.648163 0.963837
0.793671 0.648376 0.963837
0.903198 0.648773 0.963806
0.014557 0.776794 0.964203
0.091003 0.776917 0.964172
0.195374 0.777008 0.964172
0.327515 0.777191 0.964142
0.488342 0.777252 0.964111
0.658295 0.777405 0.964111
0.802429 0.777557 0.964081
0.911591 0.777588 0.964081
0.009918 0.882141 0.964600
0.086487 0.882141 0.964569
0.193207 0.882111 0.964569
0.329346 0.882111 0.964569
0.496155 0.882080 0.964539
0.670715 0.882050 0.964539
0.816772 0.882050 0.964508
0.924438 0.882050 0.964508
0.005615 0.959656 0.964996
0.081787 0.959808 0.964996
0.190704 0.959808 0.964996
0.331238 0.959717 0.964996
0.504639 0.959686 0.964996
0.682648 0.959473 0.964935
0.830200 0.959473 0.964935
0.937164 0.959595 0.964966
