__DeathRunner_UnityProj__/Assets/00_Content/02_Textures/LUTs/LUT_Roof-01.CUBE
#Created by: Adobe Photoshop Export Color Lookup Plugin
TITLE "Roof 1.psd"
#LUT size
LUT_3D_SIZE 5
#data domain
#LUT data points
DOMAIN_MIN 0.000000 0.000000 0.000000
DOMAIN_MAX 0.903226 0.903226 0.903226
0.009399 0.044922 0.062714
0.163513 0.046234 0.064484
0.409210 0.047119 0.065674
0.710968 0.048920 0.068054
0.924591 0.050262 0.069855
0.011841 0.274780 0.075867
0.165039 0.276031 0.077606
0.406799 0.277283 0.079468
0.704498 0.278534 0.081238
0.918762 0.279358 0.082458
0.017487 0.569427 0.105560
0.168579 0.570465 0.108002
0.401672 0.571014 0.109253
0.689362 0.572357 0.112366
0.903198 0.573425 0.114838
0.014435 0.805908 0.089691
0.166656 0.806030 0.091522
0.404358 0.806152 0.093384
0.698029 0.806244 0.094543
0.911835 0.806427 0.097015
0.006134 0.959381 0.044128
0.161163 0.959351 0.044739
0.412720 0.959259 0.045898
0.721191 0.959137 0.047058
0.934875 0.959137 0.047058
0.009399 0.044922 0.303589
0.163452 0.045776 0.304657
0.409119 0.047577 0.306854
0.710968 0.048920 0.308502
0.924591 0.050262 0.310120
0.012054 0.275635 0.316711
0.165192 0.276886 0.318329
0.406708 0.277740 0.319397
0.703888 0.279358 0.321594
0.918488 0.279816 0.322144
0.017487 0.569427 0.342621
0.168579 0.570465 0.344849
0.401459 0.571533 0.347107
0.689362 0.572357 0.348785
0.903198 0.573425 0.351013
0.014099 0.805786 0.326569
0.166473 0.805908 0.328217
0.404694 0.806030 0.329865
0.698334 0.806183 0.332092
0.912415 0.806335 0.333740
0.005829 0.959534 0.285156
0.161041 0.959442 0.286255
0.413025 0.959381 0.286774
0.722046 0.959290 0.287811
0.934448 0.959045 0.290314
0.009399 0.044922 0.592377
0.163574 0.046692 0.593842
0.409119 0.047577 0.594635
0.711273 0.048462 0.595337
0.924896 0.049805 0.596436
0.012268 0.276428 0.601898
0.165314 0.277740 0.602997
0.406372 0.278961 0.604095
0.703888 0.279358 0.604523
0.917938 0.280670 0.605591
0.017578 0.569641 0.618591
0.168671 0.570740 0.620056
0.401459 0.571533 0.621124
0.689087 0.572601 0.622528
0.902863 0.573669 0.623962
0.013855 0.805695 0.607025
0.166321 0.805817 0.608154
0.404907 0.805969 0.609253
0.699188 0.806091 0.610352
0.913300 0.806183 0.611420
0.005646 0.959625 0.578857
0.160919 0.959534 0.579559
0.412842 0.959320 0.581360
0.722900 0.959442 0.580353
0.935852 0.959351 0.581116
0.009399 0.044922 0.826874
0.163513 0.046234 0.827179
0.409210 0.047119 0.827454
0.711273 0.048462 0.827728
0.924896 0.049805 0.828094
0.012512 0.277283 0.829987
0.165466 0.278534 0.830292
0.406311 0.279358 0.830536
0.703033 0.280670 0.830872
0.917084 0.281921 0.831207
0.017578 0.569641 0.834869
0.168671 0.570740 0.835297
0.401367 0.571777 0.835754
0.688751 0.572906 0.836182
0.902618 0.573944 0.836578
0.013641 0.805603 0.831116
0.166168 0.805725 0.831421
0.405121 0.805878 0.831757
0.699799 0.806000 0.832062
0.913879 0.806122 0.832428
0.005432 0.959717 0.822540
0.160736 0.959625 0.822754
0.413483 0.959595 0.822876
0.722473 0.959351 0.823395
0.935699 0.959320 0.823517
0.009399 0.044922 0.964630
0.163513 0.046234 0.964600
0.409119 0.047577 0.964569
0.711548 0.048035 0.964569
0.925201 0.049347 0.964539
0.012634 0.277740 0.964355
0.165466 0.278534 0.964355
0.406097 0.280212 0.964294
0.702423 0.281464 0.964294
0.916473 0.282745 0.964264
0.017731 0.569916 0.963928
0.168701 0.571014 0.963898
0.401245 0.572083 0.963867
0.688751 0.572906 0.963837
0.902618 0.573944 0.963776
0.013306 0.805450 0.964294
0.166046 0.805634 0.964264
0.405334 0.805786 0.964233
0.700409 0.805908 0.964203
0.914764 0.806000 0.964172
0.005615 0.959656 0.964996
0.160553 0.959808 0.964996
0.413330 0.959503 0.964966
0.723053 0.959473 0.964935
0.937164 0.959595 0.964966
