__DeathRunner_UnityProj__/Assets/00_Content/02_Textures/LUTs/LUT_Roof-01.CUBE
#Created by: Adobe Photoshop Export Color Lookup Plugin
TITLE "Roof 1.psd"
#LUT size
LUT_3D_SIZE 32
#data domain
DOMAIN_MIN 0.0 0.0 0.0
DOMAIN_MAX 1.0 1.0 1.0
#LUT data points
0.009399 0.044922 0.062714
0.025452 0.045349 0.063263
0.043701 0.045349 0.063263
0.063904 0.045349 0.063263
0.086121 0.045776 0.063873
0.110077 0.045776 0.063873
0.135925 0.046234 0.064484
0.163513 0.046234 0.064484
0.192963 0.046234 0.064484
0.224304 0.046692 0.065094
0.257416 0.046692 0.065094
0.292511 0.046692 0.065094
0.329468 0.047119 0.065674
0.368317 0.047577 0.066284
0.409210 0.047119 0.065674
0.451935 0.047577 0.066284
0.496765 0.047577 0.066284
0.542236 0.048035 0.066864
0.586761 0.048035 0.066864
0.630066 0.048035 0.066864
0.671448 0.048462 0.067474
0.710968 0.048920 0.068054
0.748749 0.048920 0.068054
0.783722 0.049805 0.069275
0.816956 0.049805 0.069275
0.847717 0.049805 0.069275
0.875702 0.050262 0.069855
0.901428 0.050262 0.069855
0.924591 0.050262 0.069855
0.945038 0.050690 0.070435
0.962982 0.051147 0.071014
0.978943 0.050690 0.070435
0.009308 0.072144 0.062103
0.025269 0.072144 0.062103
0.043701 0.073029 0.063263
0.064056 0.073486 0.063873
0.086121 0.073486 0.063873
0.110077 0.073486 0.063873
0.135834 0.073486 0.063873
0.163513 0.073944 0.064484
0.192963 0.073944 0.064484
0.224304 0.074371 0.065094
0.257416 0.074371 0.065094
0.292511 0.074371 0.065094
0.329376 0.075256 0.066284
0.368347 0.074799 0.065674
0.409210 0.074799 0.065674
0.452057 0.074799 0.065674
0.496765 0.075256 0.066284
0.542419 0.075256 0.066284
0.586761 0.075714 0.066864
0.630066 0.075714 0.066864
0.671692 0.075714 0.066864
0.711273 0.076141 0.067474
0.749054 0.076141 0.067474
0.784607 0.076141 0.067474
0.817535 0.076599 0.068054
0.848022 0.077026 0.068665
0.875977 0.077484 0.069275
0.901733 0.077484 0.069275
0.924896 0.077484 0.069275
0.945282 0.077942 0.069855
0.963470 0.077942 0.069855
0.978943 0.078369 0.070435
0.009521 0.101898 0.063263
0.025452 0.101898 0.063263
0.043701 0.101898 0.063263
0.063904 0.101898 0.063263
0.086121 0.102356 0.063873
0.110199 0.102814 0.064484
0.135925 0.102814 0.064484
0.163513 0.102814 0.064484
0.192963 0.102814 0.064484
0.224304 0.103241 0.065094
0.257416 0.103241 0.065094
0.292511 0.103699 0.065674
0.329376 0.104126 0.066284
0.368317 0.104126 0.066284
0.409119 0.104126 0.066284
0.451782 0.104584 0.066864
0.496613 0.104584 0.066864
0.542236 0.104584 0.066864
0.586761 0.104584 0.066864
0.629791 0.105042 0.067474
0.671448 0.105042 0.067474
0.710968 0.105438 0.068054
0.748749 0.105438 0.068054
0.783997 0.105927 0.068665
0.817230 0.105927 0.068665
0.848022 0.105927 0.068665
0.876312 0.105927 0.068665
0.902008 0.105927 0.068665
0.924896 0.106354 0.069275
0.945557 0.106354 0.069275
0.963196 0.107239 0.070435
0.978943 0.107239 0.070435
0.009735 0.132935 0.064484
0.025818 0.133362 0.065094
0.044037 0.133362 0.065094
0.064240 0.133362 0.065094
0.086334 0.133362 0.065094
0.110229 0.133362 0.065094
0.136078 0.133820 0.065674
0.163635 0.133820 0.065674
0.193115 0.134247 0.066284
0.224335 0.134247 0.066284
0.257477 0.134247 0.066284
0.292480 0.134247 0.066284
0.329315 0.135162 0.067474
0.368164 0.135162 0.067474
0.408905 0.135162 0.067474
0.451660 0.135162 0.067474
0.496307 0.135620 0.068054
0.541809 0.135620 0.068054
0.586304 0.135620 0.068054
0.629272 0.136017 0.068665
0.670868 0.136017 0.068665
0.710693 0.136017 0.068665
0.748444 0.136017 0.068665
0.783722 0.136444 0.069275
0.816956 0.136444 0.069275
0.847717 0.136444 0.069275
0.875702 0.136932 0.069855
0.901428 0.136932 0.069855
0.924591 0.136932 0.069855
0.945282 0.136932 0.069855
0.963196 0.137329 0.070435
0.978729 0.137817 0.071014
0.009979 0.165283 0.065674
0.025940 0.165283 0.065674
0.044281 0.165741 0.066284
0.064484 0.165741 0.066284
0.086761 0.166595 0.067474
0.110626 0.166595 0.067474
0.136322 0.166595 0.067474
0.163849 0.166595 0.067474
0.193207 0.166595 0.067474
0.224426 0.167053 0.068054
0.257507 0.167053 0.068054
0.292450 0.167053 0.068054
0.329224 0.167511 0.068665
0.367950 0.167908 0.069275
0.408569 0.167908 0.069275
0.451355 0.167511 0.068665
0.495941 0.167908 0.069275
0.541382 0.167908 0.069275
0.585602 0.168396 0.069855
0.628754 0.168396 0.069855
0.670044 0.168793 0.070435
0.709808 0.168793 0.070435
0.747559 0.168793 0.070435
0.782806 0.169220 0.071014
0.815979 0.169220 0.071014
0.846802 0.169220 0.071014
0.875092 0.169220 0.071014
0.900574 0.169708 0.071686
0.923523 0.170105 0.072266
0.944244 0.170105 0.072266
0.962494 0.170105 0.072266
0.978302 0.170105 0.072266
0.010498 0.200256 0.068665
0.026520 0.200256 0.068665
0.044861 0.200684 0.069275
0.065063 0.200684 0.069275
0.087189 0.201141 0.069855
0.111023 0.201141 0.069855
0.136658 0.201141 0.069855
0.164124 0.201141 0.069855
0.193481 0.201538 0.070435
0.224579 0.201538 0.070435
0.257538 0.201538 0.070435
0.292419 0.201538 0.070435
0.329071 0.201996 0.071014
0.367676 0.202423 0.071686
0.408203 0.202423 0.071686
0.450623 0.202423 0.071686
0.494965 0.202881 0.072266
0.540314 0.202881 0.072266
0.584656 0.202881 0.072266
0.627716 0.202881 0.072266
0.668945 0.203278 0.072845
0.708344 0.203735 0.073425
0.746002 0.203735 0.073425
0.781525 0.203735 0.073425
0.814758 0.203735 0.073425
0.845245 0.204163 0.074005
0.873566 0.204163 0.074005
0.899414 0.204163 0.074005
0.922150 0.205048 0.075256
0.942932 0.205048 0.075256
0.961304 0.205048 0.075256
0.977203 0.205048 0.075256
0.011169 0.236908 0.072266
0.027313 0.237335 0.072845
0.045441 0.236908 0.072266
0.065582 0.236908 0.072266
0.087708 0.237335 0.072845
0.111603 0.237732 0.073425
0.137207 0.237732 0.073425
0.164520 0.237732 0.073425
0.193787 0.238159 0.074005
0.224762 0.238159 0.074005
0.257599 0.238617 0.074646
0.292297 0.238617 0.074646
0.328796 0.238617 0.074646
0.367310 0.238617 0.074646
0.407532 0.239044 0.075256
0.449799 0.239044 0.075256
0.493896 0.239471 0.075867
0.539032 0.239471 0.075867
0.582977 0.239899 0.076447
0.625854 0.239899 0.076447
0.667297 0.239899 0.076447
0.706879 0.239899 0.076447
0.744476 0.239899 0.076447
0.779694 0.240326 0.077057
0.812561 0.240723 0.077606
0.843384 0.240723 0.077606
0.871765 0.240723 0.077606
0.897644 0.240723 0.077606
0.921021 0.240723 0.077606
0.941345 0.241608 0.078857
0.959839 0.241608 0.078857
0.975922 0.241608 0.078857
0.011841 0.274780 0.075867
0.027924 0.274780 0.075867
0.046387 0.275635 0.077057
0.066498 0.275635 0.077057
0.088562 0.276031 0.077606
0.112244 0.276031 0.077606
0.137756 0.276031 0.077606
0.165039 0.276031 0.077606
0.194153 0.276428 0.078247
0.225006 0.276428 0.078247
0.257690 0.276886 0.078857
0.292206 0.276886 0.078857
0.328583 0.276886 0.078857
0.366730 0.276886 0.078857
0.406799 0.277283 0.079468
0.448792 0.277283 0.079468
0.492828 0.277283 0.079468
0.537567 0.277740 0.080017
0.581573 0.277740 0.080017
0.624054 0.278107 0.080658
0.665070 0.278534 0.081238
0.704498 0.278534 0.081238
0.742065 0.278534 0.081238
0.777527 0.278534 0.081238
0.810699 0.278534 0.081238
0.841217 0.278961 0.081848
0.869324 0.279358 0.082458
0.895294 0.279358 0.082458
0.918762 0.279358 0.082458
0.939545 0.279816 0.083069
0.958099 0.279816 0.083069
0.974335 0.279816 0.083069
0.012634 0.314270 0.080017
0.028870 0.314667 0.080658
0.047089 0.314667 0.080658
0.067413 0.315491 0.081848
0.089325 0.315491 0.081848
0.112946 0.315491 0.081848
0.138428 0.315857 0.082458
0.165619 0.315857 0.082458
0.194611 0.316650 0.083679
0.225281 0.316650 0.083679
0.257782 0.316284 0.083069
0.292084 0.316650 0.083679
0.328217 0.316650 0.083679
0.366089 0.317078 0.084290
0.405975 0.317078 0.084290
0.447845 0.316650 0.083679
0.491364 0.317078 0.084290
0.535889 0.317474 0.084869
0.579651 0.317474 0.084869
0.622284 0.317474 0.084869
0.663086 0.317932 0.085480
0.702179 0.318329 0.086060
0.739594 0.318329 0.086060
0.774658 0.318726 0.086670
0.807831 0.318726 0.086670
0.838684 0.318726 0.086670
0.866852 0.319153 0.087311
0.892883 0.319153 0.087311
0.916473 0.319153 0.087311
0.937378 0.319519 0.087891
0.956146 0.319519 0.087891
0.972534 0.319519 0.087891
0.013641 0.355621 0.085480
0.029907 0.356018 0.086060
0.048126 0.356018 0.086060
0.068207 0.356018 0.086060
0.090149 0.356415 0.086670
0.113739 0.356415 0.086670
0.139130 0.356781 0.087311
0.166168 0.356781 0.087311
0.194977 0.356781 0.087311
0.225494 0.356781 0.087311
0.257843 0.357178 0.087891
0.292023 0.357178 0.087891
0.327850 0.357574 0.088501
0.365601 0.357574 0.088501
0.405212 0.357574 0.088501
0.446564 0.357971 0.089081
0.489929 0.357971 0.089081
0.534210 0.358368 0.089691
0.577759 0.358368 0.089691
0.620178 0.358368 0.089691
0.660828 0.358765 0.090332
0.700104 0.358765 0.090332
0.737213 0.359100 0.090912
0.772522 0.359100 0.090912
0.805328 0.359528 0.091522
0.836182 0.359528 0.091522
0.864685 0.359528 0.091522
0.890808 0.359528 0.091522
0.914459 0.359528 0.091522
0.935211 0.360321 0.092712
0.954102 0.360321 0.092712
0.970703 0.360321 0.092712
0.014557 0.397583 0.090332
0.030762 0.397583 0.090332
0.049103 0.397980 0.090912
0.069122 0.397980 0.090912
0.090912 0.397980 0.090912
0.114502 0.398346 0.091522
0.139709 0.398346 0.091522
0.166656 0.398346 0.091522
0.195374 0.398773 0.092133
0.225830 0.399109 0.092712
0.257965 0.399109 0.092712
0.291870 0.399475 0.093384
0.327545 0.399475 0.093384
0.365051 0.399475 0.093384
0.404297 0.399872 0.093994
0.445282 0.400238 0.094543
0.488342 0.400238 0.094543
0.532288 0.400635 0.095184
0.575623 0.400635 0.095184
0.617828 0.400635 0.095184
0.658569 0.400635 0.095184
0.697418 0.401031 0.095764
0.734711 0.401031 0.095764
0.769653 0.401367 0.096405
0.802734 0.401367 0.096405
0.833649 0.401367 0.096405
0.862183 0.401367 0.096405
0.887756 0.402161 0.097626
0.911591 0.402161 0.097626
0.932739 0.402527 0.098206
0.951813 0.402527 0.098206
0.968567 0.402527 0.098206
0.015350 0.440216 0.094543
0.031708 0.440582 0.095184
0.049927 0.440582 0.095184
0.070038 0.440948 0.095764
0.091858 0.441315 0.096405
0.115326 0.441315 0.096405
0.140503 0.441650 0.097015
0.167328 0.441650 0.097015
0.195801 0.441650 0.097015
0.226074 0.442078 0.097626
0.258026 0.442078 0.097626
0.291748 0.442413 0.098206
0.327179 0.442780 0.098816
0.364410 0.442780 0.098816
0.403442 0.442780 0.098816
0.444305 0.442780 0.098816
0.486908 0.443115 0.099487
0.530609 0.443451 0.100037
0.573730 0.443451 0.100037
0.615692 0.443451 0.100037
0.656067 0.443817 0.100677
0.695038 0.443817 0.100677
0.731903 0.444214 0.101288
0.766754 0.444550 0.101837
0.799896 0.444550 0.101837
0.830719 0.444550 0.101837
0.859039 0.444885 0.102509
0.885254 0.444885 0.102509
0.909210 0.444885 0.102509
0.930481 0.445282 0.103119
0.949432 0.445648 0.103729
0.966431 0.445648 0.103729
0.016174 0.483826 0.098816
0.032440 0.483826 0.098816
0.050781 0.484192 0.099487
0.070984 0.484833 0.100677
0.092621 0.484833 0.100677
0.115967 0.484833 0.100677
0.141113 0.485168 0.101288
0.167786 0.485168 0.101288
0.196167 0.485168 0.101288
0.226318 0.485535 0.101837
0.258118 0.485535 0.101837
0.291656 0.485535 0.101837
0.326904 0.486176 0.103119
0.363892 0.486176 0.103119
0.402679 0.486176 0.103119
0.443176 0.486542 0.103729
0.485657 0.486542 0.103729
0.529083 0.486908 0.104340
0.572052 0.486908 0.104340
0.613617 0.487244 0.104950
0.654083 0.487244 0.104950
0.692627 0.487579 0.105560
0.729706 0.487579 0.105560
0.764557 0.487946 0.106171
0.797607 0.487946 0.106171
0.828156 0.488281 0.106812
0.856781 0.488281 0.106812
0.883118 0.488281 0.106812
0.906830 0.488586 0.107391
0.928467 0.488586 0.107391
0.947571 0.488922 0.108002
0.964478 0.489288 0.108643
0.016907 0.527496 0.102509
0.033264 0.527802 0.103119
0.051453 0.527802 0.103119
0.071442 0.527802 0.103119
0.093292 0.528442 0.104340
0.116547 0.528442 0.104340
0.141632 0.528748 0.104950
0.168213 0.528748 0.104950
0.196472 0.528748 0.104950
0.226532 0.529053 0.105560
0.258179 0.529053 0.105560
0.291565 0.529327 0.106171
0.326630 0.529633 0.106812
0.363434 0.529633 0.106812
0.401978 0.529938 0.107391
0.442352 0.529938 0.107391
0.484558 0.529938 0.107391
0.527863 0.530243 0.108002
0.570404 0.530609 0.108643
0.612030 0.530609 0.108643
0.652374 0.530609 0.108643
0.690887 0.530853 0.109253
0.727509 0.531219 0.109863
0.762634 0.531219 0.109863
0.795319 0.531555 0.110474
0.826233 0.531555 0.110474
0.854858 0.531555 0.110474
0.880920 0.531799 0.111084
0.905029 0.531799 0.111084
0.926483 0.532104 0.111725
0.945679 0.532440 0.112366
0.962982 0.532440 0.112366
0.017487 0.569427 0.105560
0.033783 0.569427 0.105560
0.051971 0.569427 0.105560
0.072021 0.569641 0.106171
0.093689 0.569916 0.106812
0.116974 0.569916 0.106812
0.141876 0.569916 0.106812
0.168579 0.570465 0.108002
0.196686 0.570190 0.107391
0.226654 0.570465 0.108002
0.258209 0.570465 0.108002
0.291504 0.570740 0.108643
0.326538 0.570740 0.108643
0.363159 0.571014 0.109253
0.401672 0.571014 0.109253
0.441742 0.571259 0.109863
0.483673 0.571533 0.110474
0.527008 0.571533 0.110474
0.569427 0.571777 0.111084
0.611023 0.571777 0.111084
0.650970 0.572083 0.111725
0.689362 0.572357 0.112366
0.726318 0.572357 0.112366
0.761322 0.572357 0.112366
0.794037 0.572601 0.112946
0.824890 0.572601 0.112946
0.853271 0.572906 0.113586
0.879669 0.572906 0.113586
0.903198 0.573425 0.114838
0.925049 0.573425 0.114838
0.944641 0.573425 0.114838
0.961975 0.573425 0.114838
0.017853 0.609039 0.107391
0.034149 0.609039 0.107391
0.052307 0.609039 0.107391
0.072327 0.609253 0.108002
0.094025 0.609497 0.108643
0.117249 0.609497 0.108643
0.142120 0.609497 0.108643
0.168701 0.609772 0.109253
0.196930 0.609955 0.109863
0.226807 0.610229 0.110474
0.258240 0.610229 0.110474
0.291443 0.610229 0.110474
0.326416 0.610229 0.110474
0.363037 0.610229 0.110474
0.401245 0.610626 0.111725
0.441376 0.610626 0.111725
0.483154 0.610901 0.112366
0.526398 0.610901 0.112366
0.568970 0.610901 0.112366
0.610504 0.610901 0.112366
0.650146 0.611328 0.113586
0.688477 0.611572 0.114197
0.725372 0.611572 0.114197
0.760376 0.611572 0.114197
0.793060 0.611816 0.114838
0.823944 0.611816 0.114838
0.852295 0.612030 0.115448
0.878754 0.612030 0.115448
0.902618 0.612244 0.116089
0.924194 0.612457 0.116638
0.943817 0.612457 0.116638
0.960968 0.612701 0.117279
0.017731 0.646240 0.106812
0.033997 0.646240 0.106812
0.052307 0.646423 0.107391
0.072327 0.646606 0.108002
0.093903 0.646606 0.108002
0.117249 0.646820 0.108643
0.142120 0.646820 0.108643
0.168701 0.647003 0.109253
0.196869 0.647003 0.109253
0.226776 0.647217 0.109863
0.258240 0.647217 0.109863
0.291473 0.647217 0.109863
0.326416 0.647400 0.110474
0.362946 0.647614 0.111084
0.401367 0.647614 0.111084
0.441376 0.647797 0.111725
0.483154 0.647949 0.112366
0.526398 0.647949 0.112366
0.568756 0.648163 0.112946
0.609955 0.648376 0.113586
0.650146 0.648376 0.113586
0.688751 0.648376 0.113586
0.725372 0.648560 0.114197
0.760376 0.648560 0.114197
0.793060 0.648773 0.114838
0.823944 0.648773 0.114838
0.852295 0.648987 0.115448
0.878754 0.648987 0.115448
0.902618 0.649170 0.116089
0.924194 0.649323 0.116638
0.943817 0.649323 0.116638
0.961212 0.649323 0.116638
0.017578 0.681854 0.106171
0.033905 0.681854 0.106171
0.052185 0.682037 0.106812
0.072113 0.682037 0.106812
0.093811 0.682190 0.107391
0.117035 0.682190 0.107391
0.141937 0.682190 0.107391
0.168579 0.682312 0.108002
0.196838 0.682465 0.108643
0.226685 0.682465 0.108643
0.258240 0.682648 0.109253
0.291473 0.682648 0.109253
0.326477 0.682648 0.109253
0.363129 0.682800 0.109863
0.401459 0.682953 0.110474
0.441620 0.682953 0.110474
0.483459 0.683105 0.111084
0.526825 0.683105 0.111084
0.569183 0.683289 0.111725
0.610504 0.683411 0.112366
0.650696 0.683411 0.112366
0.689362 0.683411 0.112366
0.725983 0.683563 0.112946
0.760712 0.683746 0.113586
0.793396 0.683899 0.114197
0.824280 0.683899 0.114197
0.852966 0.683899 0.114197
0.879028 0.684052 0.114838
0.903198 0.684052 0.114838
0.924744 0.684204 0.115448
0.944092 0.684387 0.116089
0.961456 0.684387 0.116089
0.017120 0.715393 0.103729
0.033508 0.715546 0.104340
0.051697 0.715546 0.104340
0.071655 0.715546 0.104340
0.093384 0.715637 0.104950
0.116760 0.715790 0.105560
0.141693 0.715790 0.105560
0.168243 0.715790 0.105560
0.196594 0.715881 0.106171
0.226562 0.715881 0.106171
0.258179 0.716034 0.106812
0.291504 0.716187 0.107391
0.326599 0.716187 0.107391
0.363342 0.716248 0.108002
0.401886 0.716248 0.108002
0.442108 0.716400 0.108643
0.484222 0.716400 0.108643
0.527466 0.716492 0.109253
0.570129 0.716492 0.109253
0.611542 0.716644 0.109863
0.651794 0.716644 0.109863
0.690277 0.716766 0.110474
0.727234 0.716766 0.110474
0.761993 0.716919 0.111084
0.795013 0.716919 0.111084
0.825562 0.717072 0.111725
0.854218 0.717072 0.111725
0.880310 0.717133 0.112366
0.904388 0.717133 0.112366
0.925934 0.717285 0.112946
0.945465 0.717285 0.112946
0.962463 0.717377 0.113586
0.016296 0.747101 0.099487
0.032593 0.747101 0.099487
0.050873 0.747223 0.100037
0.070984 0.747314 0.100677
0.092621 0.747314 0.100677
0.116089 0.747406 0.101288
0.141113 0.747406 0.101288
0.167908 0.747589 0.102509
0.196259 0.747498 0.101837
0.226318 0.747498 0.101837
0.258118 0.747650 0.103119
0.291626 0.747650 0.103119
0.326904 0.747650 0.103119
0.363770 0.747864 0.104340
0.402466 0.747864 0.104340
0.442902 0.747955 0.104950
0.485291 0.747955 0.104950
0.529083 0.747864 0.104340
0.571625 0.748077 0.105560
0.613373 0.748077 0.105560
0.653778 0.748077 0.105560
0.692017 0.748230 0.106812
0.729095 0.748230 0.106812
0.764557 0.748169 0.106171
0.797272 0.748230 0.106812
0.827545 0.748444 0.108002
0.856110 0.748444 0.108002
0.882172 0.748535 0.108643
0.906525 0.748444 0.108002
0.927917 0.748535 0.108643
0.947052 0.748627 0.109253
0.963989 0.748749 0.109863
0.015472 0.777344 0.095184
0.031708 0.777344 0.095184
0.050049 0.777405 0.095764
0.070038 0.777405 0.095764
0.091858 0.777466 0.096405
0.115326 0.777466 0.096405
0.140503 0.777557 0.097015
0.167328 0.777557 0.097015
0.195801 0.777557 0.097015
0.226074 0.777588 0.097626
0.258026 0.777649 0.098206
0.291748 0.777649 0.098206
0.327209 0.777649 0.098206
0.364410 0.777740 0.098816
0.403351 0.777802 0.099487
0.444153 0.777802 0.099487
0.486908 0.777802 0.099487
0.530823 0.777802 0.099487
0.573730 0.777863 0.100037
0.615448 0.777924 0.100677
0.656067 0.777924 0.100677
0.695038 0.777924 0.100677
0.731903 0.777985 0.101288
0.766754 0.778076 0.101837
0.799896 0.778076 0.101837
0.830414 0.778168 0.102509
0.859039 0.778168 0.102509
0.885254 0.778168 0.102509
0.908875 0.778229 0.103119
0.930481 0.778229 0.103119
0.949432 0.778320 0.103729
0.966431 0.778320 0.103729
0.014435 0.805908 0.089691
0.030609 0.805908 0.089691
0.048950 0.805969 0.090332
0.069000 0.805969 0.090332
0.090790 0.805969 0.090332
0.114319 0.805969 0.090332
0.139679 0.806000 0.090912
0.166656 0.806030 0.091522
0.195343 0.806030 0.091522
0.225800 0.806091 0.092133
0.257965 0.806091 0.092133
0.291901 0.806091 0.092133
0.327606 0.806122 0.092712
0.365082 0.806122 0.092712
0.404358 0.806152 0.093384
0.445587 0.806152 0.093384
0.488495 0.806183 0.093994
0.532745 0.806183 0.093994
0.576141 0.806183 0.093994
0.618073 0.806244 0.094543
0.658875 0.806244 0.094543
0.698029 0.806244 0.094543
0.734711 0.806335 0.095764
0.769958 0.806335 0.095764
0.803101 0.806335 0.095764
0.833649 0.806366 0.096405
0.862183 0.806366 0.096405
0.888062 0.806427 0.097015
0.911835 0.806427 0.097015
0.932983 0.806458 0.097626
0.952057 0.806458 0.097626
0.968567 0.806519 0.098206
0.013184 0.832886 0.083069
0.029449 0.832886 0.083679
0.047668 0.832886 0.083679
0.067871 0.832916 0.084290
0.089722 0.832916 0.084290
0.113312 0.832916 0.084290
0.138702 0.832916 0.084290
0.165894 0.832947 0.084869
0.194946 0.833038 0.086975
0.225403 0.832977 0.085480
0.257843 0.832977 0.086060
0.292053 0.832977 0.086060
0.328064 0.832977 0.086060
0.365814 0.833008 0.086670
0.405548 0.833008 0.086670
0.447113 0.833008 0.086670
0.490540 0.833038 0.087311
0.535034 0.833038 0.087311
0.578491 0.833069 0.087891
0.620972 0.833069 0.087891
0.660950 0.833130 0.090027
0.700928 0.833069 0.088501
0.738403 0.833069 0.088501
0.773712 0.833069 0.088501
0.806580 0.833099 0.089081
0.837097 0.833130 0.089691
0.865601 0.833130 0.089691
0.891663 0.833130 0.089691
0.915344 0.833130 0.089691
0.935059 0.833221 0.093018
0.953979 0.833221 0.093018
0.971375 0.833191 0.090912
0.011963 0.858246 0.076447
0.028015 0.858246 0.076447
0.046814 0.858276 0.079163
0.067017 0.858276 0.079803
0.088562 0.858276 0.077606
0.112244 0.858276 0.077606
0.137756 0.858276 0.077606
0.165039 0.858276 0.077606
0.194153 0.858276 0.078247
0.225006 0.858276 0.078247
0.257690 0.858276 0.078857
0.292175 0.858276 0.080994
0.328369 0.858307 0.081573
0.366638 0.858276 0.079468
0.406433 0.858276 0.081573
0.448334 0.858276 0.081573
0.492645 0.858276 0.080017
0.536804 0.858276 0.082184
0.580566 0.858276 0.082794
0.623169 0.858276 0.082794
0.665070 0.858276 0.081238
0.703491 0.858276 0.083374
0.742065 0.858276 0.081238
0.777191 0.858276 0.081848
0.810394 0.858276 0.081848
0.841217 0.858276 0.081848
0.869324 0.858276 0.082458
0.893921 0.858276 0.085205
0.917450 0.858276 0.085205
0.939545 0.858276 0.083069
0.957886 0.858276 0.083679
0.973328 0.858276 0.085785
0.010590 0.882050 0.069275
0.027039 0.881989 0.071381
0.045410 0.881989 0.072021
0.065552 0.881989 0.072021
0.087280 0.882019 0.070435
0.111481 0.881958 0.072601
0.137085 0.881958 0.072601
0.164246 0.881989 0.071014
0.193726 0.881958 0.073181
0.224640 0.881989 0.071686
0.257599 0.881958 0.073792
0.292389 0.881989 0.071686
0.329041 0.881989 0.071686
0.367584 0.881958 0.072266
0.407654 0.881927 0.074402
0.450012 0.881927 0.074402
0.494843 0.881958 0.072845
0.539337 0.881927 0.074982
0.583588 0.881927 0.074982
0.626282 0.881897 0.075592
0.667633 0.881897 0.075592
0.708344 0.881958 0.073425
0.744629 0.881866 0.076172
0.780151 0.881866 0.076172
0.812988 0.881866 0.076782
0.843842 0.881866 0.076782
0.872223 0.881866 0.076782
0.898071 0.881866 0.076782
0.921112 0.881866 0.077393
0.942017 0.881866 0.077393
0.960175 0.881866 0.077972
0.976196 0.881866 0.077972
0.009705 0.904022 0.064270
0.025665 0.904022 0.064270
0.044006 0.903992 0.064880
0.064240 0.903992 0.064880
0.086304 0.903992 0.064880
0.110321 0.903992 0.065460
0.136047 0.903992 0.065460
0.163605 0.903992 0.065460
0.193085 0.903931 0.066040
0.224304 0.903931 0.066040
0.257477 0.903931 0.066040
0.292511 0.903931 0.066040
0.329376 0.903931 0.066650
0.368225 0.903931 0.066650
0.409027 0.903931 0.066650
0.451843 0.903931 0.066650
0.496521 0.903900 0.067200
0.542084 0.903900 0.067200
0.586395 0.903870 0.067810
0.629639 0.903870 0.067810
0.671295 0.903870 0.067810
0.710785 0.903839 0.068451
0.748596 0.903839 0.068451
0.784149 0.903839 0.068451
0.817322 0.903839 0.068451
0.847870 0.903809 0.069000
0.876129 0.903809 0.069000
0.901825 0.903809 0.069000
0.924744 0.903778 0.069611
0.945404 0.903778 0.069611
0.963562 0.903778 0.069611
0.979248 0.903778 0.069611
0.008423 0.924316 0.057129
0.024261 0.924316 0.057129
0.042633 0.924255 0.057739
0.062866 0.924255 0.057739
0.085144 0.924225 0.058289
0.109161 0.924225 0.058289
0.135071 0.924225 0.058289
0.162750 0.924225 0.058289
0.192474 0.924225 0.058899
0.223907 0.924225 0.058899
0.257324 0.924225 0.058899
0.292633 0.924225 0.058899
0.329865 0.924164 0.059509
0.369110 0.924164 0.059509
0.410309 0.924164 0.059509
0.453522 0.924164 0.059509
0.498688 0.924133 0.060120
0.544647 0.924133 0.060120
0.589539 0.924133 0.060120
0.632996 0.924133 0.060120
0.674561 0.924103 0.060730
0.714569 0.924103 0.060730
0.752472 0.924103 0.060730
0.787811 0.924042 0.061310
0.821045 0.924042 0.061310
0.851776 0.924042 0.061310
0.879944 0.924042 0.061310
0.905273 0.924011 0.061890
0.928284 0.924011 0.061890
0.948700 0.924011 0.061890
0.966583 0.924011 0.061890
0.981964 0.924011 0.061890
0.007263 0.942749 0.050629
0.023041 0.942749 0.050629
0.041260 0.942749 0.050629
0.061646 0.942719 0.051208
0.083893 0.942719 0.051208
0.108002 0.942719 0.051208
0.134033 0.942719 0.051208
0.161926 0.942719 0.051208
0.191803 0.942657 0.051819
0.223541 0.942657 0.051819
0.257172 0.942657 0.051819
0.292816 0.942657 0.051819
0.330414 0.942657 0.051819
0.369965 0.942596 0.052429
0.411560 0.942596 0.052429
0.455231 0.942596 0.052429
0.501068 0.942596 0.052429
0.547089 0.942566 0.052979
