__DeathRunner_UnityProj__/Assets/00_Content/02_Textures/Lut Presets/Roof 1.3DL
#Created by: Adobe Photoshop Export Color Lookup Plugin
#Description: Roof 1.psd
0 33 66 99 132 165 198 231 264 297 330 363 396 429 462 495 528 561 594 627 660 693 726 759 792 825 858 891 924 957 990 1023
38 184 257
38 184 386
38 184 517
38 184 654
39 186 797
38 184 939
38 184 1089
38 184 1243
38 184 1402
39 186 1568
38 184 1734
38 184 1907
38 184 2083
39 186 2260
38 184 2426
38 184 2587
38 184 2740
38 184 2886
38 182 3022
38 184 3153
38 184 3273
38 184 3386
38 184 3490
38 184 3586
38 182 3674
38 184 3754
39 186 3827
38 184 3892
38 184 3950
38 182 4002
38 184 4046
39 187 4085
38 295 254
38 295 383
38 297 517
38 297 654
38 297 794
38 297 939
38 297 1089
38 297 1243
39 299 1404
39 299 1568
38 297 1734
38 297 1907
38 297 2083
38 297 2258
38 297 2426
38 297 2587
38 297 2740
39 299 2887
39 299 3024
38 297 3153
39 299 3274
39 299 3386
39 299 3491
39 299 3586
38 297 3674
38 297 3754
38 297 3827
38 297 3892
38 297 3950
38 297 4002
38 297 4046
38 297 4085
39 417 259
39 417 388
38 416 517
38 416 654
39 417 797
39 417 942
38 416 1089
38 416 1243
39 417 1404
39 417 1568
39 417 1736
39 417 1908
39 417 2085
39 417 2260
39 419 2429
39 419 2589
40 421 2744
39 419 2888
39 419 3025
39 419 3154
39 419 3275
39 419 3387
39 419 3491
39 419 3587
40 421 3675
40 421 3755
40 421 3827
40 421 3892
40 421 3950
40 421 4001
40 421 4046
40 421 4085
40 544 264
40 544 393
40 544 525
40 544 661
40 544 801
40 544 946
40 544 1096
40 546 1252
40 546 1411
40 544 1572
40 544 1740
40 544 1912
40 546 2091
40 544 2263
40 544 2430
40 544 2591
40 546 2745
40 546 2890
40 546 3027
40 546 3155
40 546 3276
40 546 3388
40 546 3492
40 546 3587
40 546 3675
40 546 3755
41 548 3827
41 548 3892
41 548 3950
41 548 4001
41 548 4046
41 548 4085
41 677 269
41 677 398
41 677 529
41 679 668
41 679 808
41 679 953
41 679 1103
41 679 1257
42 681 1417
42 681 1580
42 681 1748
41 679 1918
42 681 2097
42 681 2270
42 681 2436
42 682 2597
42 681 2748
42 682 2894
42 682 3030
42 682 3158
42 682 3278
42 682 3390
43 684 3493
43 684 3589
42 682 3676
42 682 3755
43 684 3827
43 684 3892
43 686 3950
43 686 4001
43 686 4045
43 684 4084
43 820 281
43 820 409
43 822 544
43 820 677
43 820 817
43 822 964
43 822 1114
43 822 1268
43 820 1424
43 822 1589
43 822 1756
43 822 1928
44 824 2106
44 824 2278
44 824 2444
44 824 2603
44 824 2754
44 825 2899
44 825 3034
44 825 3162
45 827 3282
44 825 3392
45 827 3495
45 827 3590
45 829 3677
45 829 3756
45 827 3827
45 827 3892
45 829 3950
45 829 4001
46 831 4045
46 831 4083
46 970 296
46 970 424
46 970 556
46 972 694
46 972 834
46 972 979
46 972 1128
46 972 1281
47 974 1442
47 974 1604
47 974 1771
47 975 1944
47 975 2119
47 975 2290
47 975 2454
47 975 2612
47 975 2762
47 977 2906
48 979 3041
48 979 3167
47 977 3285
47 977 3395
48 979 3498
48 979 3592
48 981 3678
48 979 3757
48 979 3828
48 981 3892
49 982 3949
48 981 4000
49 982 4044
49 982 4083
48 1125 311
49 1127 441
49 1127 572
49 1127 708
49 1129 851
49 1129 995
49 1129 1144
49 1129 1297
49 1129 1455
50 1130 1619
50 1130 1785
50 1132 1958
50 1130 2130
50 1130 2300
50 1132 2465
50 1132 2621
51 1134 2772
51 1134 2913
51 1134 3046
51 1134 3172
51 1135 3290
51 1135 3399
51 1135 3500
51 1134 3593
51 1134 3679
51 1135 3757
51 1135 3828
52 1139 3892
52 1137 3949
52 1137 4000
51 1135 4044
52 1139 4082
52 1287 328
53 1290 461
52 1289 589
52 1289 725
53 1290 867
53 1290 1011
53 1292 1162
53 1292 1315
53 1290 1470
53 1292 1634
53 1292 1800
53 1293 1972
53 1293 2145
53 1293 2313
53 1293 2476
54 1295 2632
54 1295 2780
54 1295 2920
54 1295 3052
54 1295 3177
54 1297 3293
54 1297 3402
54 1297 3503
54 1297 3595
55 1298 3681
55 1298 3758
55 1300 3829
55 1298 3892
55 1298 3949
55 1300 3999
55 1300 4043
55 1300 4081
56 1456 350
56 1458 480
56 1458 611
56 1458 746
56 1458 886
56 1458 1030
56 1458 1178
56 1458 1330
57 1460 1490
57 1460 1651
57 1461 1818
57 1461 1988
57 1461 2160
57 1461 2327
58 1463 2489
58 1463 2642
58 1463 2789
58 1463 2928
58 1463 3059
58 1463 3182
58 1464 3298
58 1464 3406
58 1464 3505
59 1466 3597
59 1466 3682
59 1468 3759
59 1466 3829
59 1466 3892
59 1468 3948
59 1468 3998
59 1468 4042
60 1469 4080
60 1628 370
60 1628 497
60 1628 628
60 1630 766
60 1630 905
60 1630 1048
61 1631 1199
61 1631 1351
61 1633 1510
61 1633 1670
61 1633 1835
61 1633 2004
61 1633 2175
61 1633 2340
61 1633 2499
61 1633 2651
61 1634 2798
61 1634 2936
61 1634 3066
62 1636 3188
61 1634 3302
61 1634 3409
62 1636 3508
62 1637 3600
62 1636 3683
62 1636 3760
62 1637 3829
63 1639 3892
63 1639 3948
63 1639 3998
63 1639 4042
63 1639 4080
63 1803 387
63 1804 517
64 1806 650
64 1806 785
64 1806 924
64 1806 1067
64 1807 1217
64 1806 1367
64 1806 1523
64 1806 1683
64 1806 1848
64 1807 2019
64 1807 2188
64 1807 2352
65 1809 2511
65 1809 2662
65 1809 2806
65 1809 2942
65 1810 3072
65 1810 3193
65 1810 3307
66 1812 3413
66 1812 3511
66 1812 3601
66 1812 3685
66 1813 3761
66 1813 3830
66 1813 3892
66 1812 3948
66 1812 3997
66 1813 4041
67 1815 4079
66 1981 405
66 1981 532
67 1983 665
67 1983 800
67 1983 939
67 1983 1081
67 1983 1229
67 1984 1383
68 1985 1540
68 1985 1700
68 1985 1864
68 1985 2033
68 1985 2201
68 1985 2363
68 1987 2522
68 1987 2671
68 1987 2814
68 1987 2949
69 1988 3078
69 1988 3198
69 1988 3311
69 1990 3416
69 1988 3513
68 1987 3603
69 1988 3686
69 1988 3761
69 1988 3830
69 1988 3892
69 1990 3948
69 1990 3997
69 1990 4040
69 1990 4078
69 2160 420
69 2160 546
69 2160 677
70 2161 814
70 2161 953
70 2161 1096
70 2161 1243
70 2163 1396
70 2163 1552
70 2163 1711
70 2163 1875
70 2163 2043
70 2164 2212
70 2164 2373
70 2164 2529
70 2164 2678
70 2164 2820
70 2163 2953
70 2163 3080
71 2165 3201
71 2165 3313
70 2164 3417
70 2164 3514
70 2164 3604
70 2164 3686
70 2164 3762
70 2164 3830
71 2165 3892
71 2165 3947
71 2165 3997
71 2165 4040
72 2166 4078
72 2332 432
72 2332 559
72 2332 689
72 2332 824
72 2332 963
72 2332 1105
72 2332 1252
72 2332 1403
72 2332 1558
72 2332 1718
72 2332 1881
72 2333 2051
72 2333 2217
72 2333 2378
72 2333 2533
72 2333 2681
72 2333 2823
72 2333 2957
72 2333 3084
72 2333 3203
73 2334 3315
72 2333 3419
72 2333 3515
73 2334 3605
73 2334 3687
73 2335 3762
73 2334 3830
73 2334 3892
73 2334 3947
73 2334 3996
73 2334 4040
73 2335 4077
73 2494 440
73 2494 566
73 2494 697
73 2493 829
73 2493 967
73 2493 1110
73 2494 1259
73 2494 1410
73 2494 1565
73 2494 1724
73 2494 1887
73 2493 2053
73 2493 2219
73 2494 2382
73 2493 2535
73 2493 2683
73 2493 2824
73 2493 2958
73 2493 3084
73 2493 3204
73 2493 3315
73 2493 3419
73 2494 3516
73 2493 3605
73 2493 3687
73 2494 3762
73 2493 3830
73 2493 3892
73 2493 3947
73 2493 3996
73 2493 4040
73 2493 4078
73 2646 437
73 2646 564
73 2646 694
73 2646 829
73 2646 967
73 2646 1110
73 2646 1257
73 2646 1408
73 2646 1563
73 2646 1722
73 2646 1885
73 2646 2053
73 2646 2219
72 2645 2378
72 2645 2533
73 2646 2683
73 2646 2824
73 2646 2958
72 2645 3084
72 2645 3203
72 2645 3315
73 2646 3419
72 2645 3515
72 2645 3605
72 2645 3687
72 2645 3762
72 2645 3830
72 2645 3892
72 2645 3947
72 2645 3997
72 2645 4040
72 2645 4078
72 2792 435
72 2792 561
72 2792 692
72 2792 826
72 2792 963
72 2792 1105
72 2792 1252
72 2792 1403
72 2792 1558
72 2792 1718
72 2792 1881
72 2792 2049
72 2792 2215
72 2792 2377
71 2791 2530
71 2791 2679
71 2791 2821
71 2791 2955
71 2791 3082
70 2790 3201
70 2790 3313
71 2791 3418
71 2791 3515
70 2790 3604
70 2790 3686
70 2790 3762
70 2790 3830
70 2790 3892
70 2790 3947
70 2790 3997
70 2790 4040
70 2789 4078
70 2930 425
70 2930 551
70 2930 682
70 2930 817
70 2930 955
70 2929 1096
69 2928 1240
69 2928 1392
70 2929 1549
70 2929 1709
69 2928 1871
69 2928 2038
69 2928 2206
69 2928 2368
69 2928 2523
68 2928 2671
69 2928 2815
69 2928 2950
69 2928 3078
69 2928 3198
69 2928 3311
68 2927 3415
68 2927 3512
68 2928 3603
68 2927 3685
68 2927 3761
68 2927 3830
68 2927 3892
67 2927 3948
67 2926 3997
67 2926 4041
67 2926 4079
67 3059 407
67 3059 534
67 3059 665
66 3059 797
66 3059 936
66 3059 1079
66 3059 1226
66 3059 1378
66 3059 1534
66 3059 1692
66 3059 1856
66 3059 2024
65 3058 2192
65 3058 2355
65 3058 2513
65 3058 2663
65 3058 2807
65 3058 2942
65 3058 3071
65 3058 3193
65 3058 3306
64 3057 3412
64 3057 3510
64 3057 3601
64 3057 3684
64 3057 3760
64 3057 3830
64 3057 3892
64 3057 3948
64 3057 3998
63 3057 4042
63 3057 4080
63 3183 390
63 3183 514
63 3183 645
63 3183 780
63 3183 919
62 3183 1060
62 3183 1208
62 3182 1358
62 3182 1514
62 3182 1674
62 3182 1839
62 3182 2008
62 3182 2179
61 3182 2340
61 3182 2499
61 3182 2651
61 3182 2797
61 3182 2934
61 3182 3065
61 3181 3186
61 3181 3301
60 3181 3407
60 3181 3507
61 3181 3598
60 3181 3682
60 3181 3759
60 3181 3829
60 3181 3892
60 3181 3948
60 3181 3998
59 3181 4042
59 3181 4080
59 3300 367
59 3300 492
59 3300 623
59 3300 758
58 3300 895
58 3300 1039
58 3300 1187
58 3300 1337
58 3300 1494
58 3300 1655
57 3299 1818
57 3299 1988
57 3299 2160
57 3299 2325
57 3299 2486
56 3299 2638
56 3299 2785
56 3299 2925
56 3299 3056
56 3299 3180
56 3299 3295
56 3299 3403
55 3299 3503
55 3299 3596
55 3299 3681
55 3299 3758
55 3299 3829
54 3298 3892
54 3298 3949
54 3298 3999
54 3298 4043
54 3298 4082
54 3411 340
56 3411 476
53 3411 597
53 3411 732
53 3411 872
53 3411 1016
53 3410 1162
53 3410 1315
53 3410 1470
53 3410 1632
54 3411 1805
53 3410 1968
52 3410 2140
52 3410 2309
52 3410 2469
52 3410 2625
51 3410 2773
51 3410 2914
51 3410 3047
51 3410 3172
51 3410 3289
52 3410 3400
51 3410 3500
50 3410 3593
50 3410 3679
50 3410 3757
51 3410 3828
49 3410 3892
49 3410 3949
49 3410 4000
51 3410 4044
49 3410 4083
49 3515 313
49 3515 441
48 3515 570
48 3515 706
48 3515 843
49 3515 996
48 3515 1137
49 3515 1298
47 3515 1446
49 3515 1616
49 3515 1782
47 3515 1944
47 3515 2119
47 3515 2288
47 3515 2453
47 3515 2611
46 3515 2760
46 3515 2902
46 3515 3037
47 3515 3166
47 3515 3285
47 3515 3395
45 3515 3496
45 3515 3590
46 3515 3677
45 3515 3756
46 3515 3828
46 3515 3892
44 3515 3950
46 3515 4000
44 3515 4045
45 3515 4084
43 3612 284
43 3612 412
45 3612 552
45 3612 686
45 3612 826
44 3612 969
44 3612 1118
43 3612 1263
44 3612 1427
44 3612 1590
42 3612 1750
43 3612 1927
43 3612 2103
43 3612 2274
42 3612 2439
42 3612 2598
42 3612 2750
42 3612 2894
42 3612 3031
42 3612 3158
42 3612 3278
41 3612 3389
41 3612 3493
41 3612 3588
41 3612 3675
41 3612 3755
41 3612 3827
41 3612 3892
41 3612 3950
40 3612 4001
40 3612 4046
40 3612 4085
40 3702 263
40 3702 392
39 3702 521
39 3702 657
39 3702 798
39 3702 941
39 3702 1090
38 3702 1242
38 3702 1401
38 3702 1565
38 3702 1733
38 3702 1904
38 3702 2081
38 3702 2255
37 3703 2421
37 3703 2582
37 3703 2736
37 3703 2883
37 3703 3020
37 3703 3150
37 3703 3271
36 3703 3383
36 3703 3488
36 3703 3585
36 3703 3673
36 3703 3753
36 3703 3827
35 3703 3892
35 3703 3951
35 3703 4002
35 3703 4047
35 3703 4086
34 3785 234
34 3785 363
34 3785 495
34 3785 629
34 3785 770
34 3785 914
34 3785 1063
33 3785 1216
33 3785 1375
33 3785 1540
33 3785 1709
33 3786 1880
33 3786 2058
33 3786 2235
33 3786 2406
32 3786 2567
32 3786 2722
32 3786 2870
32 3786 3010
32 3786 3142
31 3786 3264
31 3786 3378
31 3786 3484
31 3786 3582
31 3786 3671
31 3786 3752
31 3786 3826
30 3787 3892
30 3787 3951
30 3787 4003
30 3787 4048
30 3787 4087
30 3861 207
29 3861 335
29 3861 467
29 3861 604
29 3861 743
29 3861 888
29 3861 1039
28 3861 1192
28 3861 1352
28 3861 1515
28 3861 1684
28 3861 1859
28 3862 2036
28 3862 2215
28 3862 2387
27 3862 2551
27 3862 2709
27 3862 2860
27 3862 3000
27 3862 3133
27 3862 3258
26 3862 3373
26 3862 3480
26 3862 3579
26 3862 3669
26 3862 3751
26 3862 3825
26 3862 3892
25 3863 3951
25 3863 4004
25 3863 4049
25 3863 4088
25 3929 181
25 3929 309
25 3929 442
25 3929 578
